modules/home-manager/gui/hypr/hyprland/assets/pq-to-sdr.cube
TITLE "PQ BT.2020 HDR to SDR BT.709 (Hable Filmic)"
LUT_3D_SIZE 5
# PQ/BT.2020 -> Hable filmic tonemap -> BT.709
# Peak: 1000 nits, Hable white: 10.0x SDR
0.00000000 0.00000000 0.00000000
0.10827560 0.00000000 0.00658573
0.64571262 0.00000000 0.11034582
1.00000000 0.68632358 0.70929796
1.00000000 0.99974596 0.99976110
0.00000000 0.08426035 0.02379136
0.09587655 0.09105704 0.00000000
0.69363084 0.00000000 0.04830439
1.00000000 0.69061810 0.71195412
1.00000000 0.99974635 0.99976139
0.00000000 0.53147488 0.25830573
0.00000000 0.53774602 0.23767317
0.55412856 0.53797598 0.00000000
1.00000000 0.75288002 0.75120504
1.00000000 0.99975290 0.99976618
0.76752834 1.00000000 0.84055118
0.76926172 1.00000000 0.84080061
0.79729480 1.00000000 0.84481151
1.00000000 0.99530335 0.90886956
1.00000000 0.99980649 0.99980470
1.00000000 1.00000000 1.00000000
1.00000000 1.00000000 1.00000000
1.00000000 1.00000000 1.00000000
1.00000000 1.00000000 1.00000000
1.00000000 0.99998360 0.99969697
0.00000000 0.00264332 0.04882964
0.10882779 0.00000000 0.07967396
0.64573170 0.00000000 0.15929953
1.00000000 0.68657251 0.71077939
1.00000000 0.99974605 0.99976127
0.00000000 0.08601304 0.08071457
0.09096563 0.09096563 0.09095708
0.69280251 0.00000000 0.12357767
1.00000000 0.69086166 0.71341936
1.00000000 0.99974645 0.99976156
0.00000000 0.53158514 0.27921900
0.00000000 0.53775590 0.26186337
0.55494831 0.53877554 0.00000000
1.00000000 0.75305338 0.75244216
1.00000000 0.99975299 0.99976634
0.76759741 1.00000000 0.84147342
0.76932985 1.00000000 0.84172160
0.79734809 1.00000000 0.84571262
1.00000000 0.99532372 0.90928549
1.00000000 0.99980655 0.99980484
1.00000000 1.00000000 1.00000000
1.00000000 1.00000000 1.00000000
1.00000000 1.00000000 1.00000000
1.00000000 1.00000000 1.00000000
1.00000000 0.99998361 0.99969712
0.00000000 0.04717592 0.42600892
0.04749128 0.00000000 0.57669104
0.64311367 0.00000000 0.53986816
1.00000000 0.69072219 0.73512966
1.00000000 0.99974760 0.99976413
0.00000000 0.11988034 0.44579334
0.00000000 0.08833581 0.59692155
0.67809775 0.00000000 0.56998368
1.00000000 0.69492236 0.73751147
1.00000000 0.99974800 0.99976441
0.00000000 0.53367902 0.51640573
0.00000000 0.53834906 0.52094729
0.53404833 0.53404833 0.53401984
1.00000000 0.75594888 0.77287716
1.00000000 0.99975450 0.99976913
0.76876855 1.00000000 0.85677881
0.77048518 1.00000000 0.85700655
0.79825410 1.00000000 0.86067296
1.00000000 0.99566629 0.91625167
1.00000000 0.99980769 0.99980715
1.00000000 1.00000000 1.00000000
1.00000000 1.00000000 1.00000000
1.00000000 1.00000000 1.00000000
1.00000000 1.00000000 1.00000000
1.00000000 0.99998374 0.99969962
0.29487238 0.37018797 1.00000000
0.31148969 0.37385951 1.00000000
0.50891523 0.42812321 1.00000000
1.00000000 0.72780338 0.93179106
1.00000000 0.99976323 0.99979215
0.30536176 0.38723083 1.00000000
0.32130109 0.39065722 1.00000000
0.51336519 0.44165954 1.00000000
1.00000000 0.73125285 0.93253854
1.00000000 0.99976359 0.99979240
0.43068163 0.58094140 1.00000000
0.44043929 0.58242694 1.00000000
0.57429799 0.60572247 1.00000000
1.00000000 0.78227378 0.94395830
1.00000000 0.99976962 0.99979652
0.78134890 1.00000000 0.98844263
0.78291474 1.00000000 0.98851481
0.80829843 1.00000000 0.98970594
0.99797077 0.99797077 0.99792140
1.00000000 0.99981915 0.99982993
1.00000000 1.00000000 1.00000000
1.00000000 1.00000000 1.00000000
1.00000000 1.00000000 1.00000000
1.00000000 1.00000000 1.00000000
1.00000000 0.99998512 0.99972511
0.91697848 0.92168516 1.00000000
0.91744932 0.92206480 1.00000000
0.92511362 0.92830362 1.00000000
0.97996685 0.97777223 1.00000000
1.00000000 0.99989778 0.99997106
0.91800945 0.92271756 1.00000000
0.91847614 0.92309385 1.00000000
0.92607384 0.92927846 1.00000000
0.98049552 0.97837713 1.00000000
1.00000000 0.99989793 0.99997110
0.93426595 0.93884348 1.00000000
0.93466974 0.93916943 1.00000000
0.94125514 0.94453906 1.00000000
0.98901934 0.98799879 1.00000000
1.00000000 0.99990051 0.99997183
1.00000000 1.00000000 1.00000000
1.00000000 1.00000000 1.00000000
1.00000000 1.00000000 1.00000000
1.00000000 1.00000000 1.00000000
1.00000000 0.99992241 0.99997803
1.00000000 1.00000000 1.00000000
1.00000000 1.00000000 1.00000000
1.00000000 1.00000000 1.00000000
1.00000000 1.00000000 1.00000000
1.00000000 1.00000000 0.99995054
