modules/home-manager/gui/hypr/hyprland/assets/pq-to-sdr.cube
TITLE "PQ BT.2020 HDR to SDR BT.709 (Hable Filmic)"
LUT_3D_SIZE 33
# PQ/BT.2020 -> Hable filmic tonemap -> BT.709
# Peak: 1000 nits, Hable white: 10.0x SDR
0.00000000 0.00000000 0.00000000
0.00046136 0.00000000 0.00002750
0.00215619 0.00000000 0.00012852
0.00587728 0.00000000 0.00035031
0.01272741 0.00000000 0.00075861
0.02421076 0.00000000 0.00144307
0.04236110 0.00000000 0.00252491
0.06990810 0.00000000 0.00416684
0.10827560 0.00000000 0.00658573
0.15190715 0.00000000 0.01006862
0.20113449 0.00000000 0.01499220
0.25654020 0.00000000 0.02184543
0.31872019 0.00000000 0.03125424
0.38825514 0.00000000 0.04400591
0.46567305 0.00000000 0.06106938
0.55140236 0.00000000 0.08383431
0.64571262 0.00000000 0.11034582
0.74863853 0.00000000 0.13927928
0.85988608 0.00000000 0.17055203
0.97872648 0.00000000 0.20395920
1.00000000 0.21449057 0.32030277
1.00000000 0.36622005 0.43224942
1.00000000 0.48675697 0.53246022
1.00000000 0.59205547 0.62455235
1.00000000 0.68632358 0.70929796
1.00000000 0.77071252 0.78644769
1.00000000 0.84539904 0.85548084
1.00000000 0.91038383 0.91599795
1.00000000 0.96584299 0.96791644
1.00000000 0.99974596 0.99976110
1.00000000 0.99974596 0.99976110
1.00000000 0.99974596 0.99976110
1.00000000 0.99974596 0.99976110
0.00000000 0.00035125 0.00009944
0.00040318 0.00038136 0.00000000
0.00255520 0.00025566 0.00000000
0.00719756 0.00000000 0.00004174
0.01403005 0.00000000 0.00050235
0.02550685 0.00000000 0.00120657
0.04365427 0.00000000 0.00229750
0.07119975 0.00000000 0.00394412
0.10936157 0.00000000 0.00636563
0.15276695 0.00000000 0.00985008
0.20182425 0.00000000 0.01477465
0.25709904 0.00000000 0.02162857
0.31917614 0.00000000 0.03103801
0.38862879 0.00000000 0.04379040
0.46597989 0.00000000 0.06085486
0.55165428 0.00000000 0.08362449
0.64591894 0.00000000 0.11016984
0.74880670 0.00000000 0.13913125
0.86002216 0.00000000 0.17042732
0.97883549 0.00000000 0.20385409
1.00000000 0.21461141 0.32031591
1.00000000 0.36628434 0.43226707
1.00000000 0.48679766 0.53247706
1.00000000 0.59208248 0.62456656
1.00000000 0.68634169 0.70930915
1.00000000 0.77072457 0.78645605
1.00000000 0.84540694 0.85548685
1.00000000 0.91038890 0.91600213
1.00000000 0.96584617 0.96791927
1.00000000 0.99974596 0.99976110
1.00000000 0.99974596 0.99976110
1.00000000 0.99974596 0.99976110
1.00000000 0.99974596 0.99976110
0.00000000 0.00164161 0.00046474
0.00000000 0.00181099 0.00017304
0.00188436 0.00178236 0.00000000
0.00657378 0.00151699 0.00000000
0.01534796 0.00098642 0.00000000
0.03016744 0.00006403 0.00000000
0.04847847 0.00000000 0.00124513
0.07598798 0.00000000 0.00299834
0.11331481 0.00000000 0.00547768
0.15590638 0.00000000 0.00899585
0.20434767 0.00000000 0.01394119
0.25914604 0.00000000 0.02080863
0.32084763 0.00000000 0.03022753
0.38999935 0.00000000 0.04298739
0.46710581 0.00000000 0.06005882
0.55257894 0.00000000 0.08284558
0.64667638 0.00000000 0.10951843
0.74942418 0.00000000 0.13858449
0.86052185 0.00000000 0.16996738
0.97923581 0.00000000 0.20346687
1.00000000 0.21505477 0.32036413
1.00000000 0.36652040 0.43233188
1.00000000 0.48694710 0.53253889
1.00000000 0.59218169 0.62461876
1.00000000 0.68640819 0.70935023
1.00000000 0.77076883 0.78648679
1.00000000 0.84543593 0.85550894
1.00000000 0.91040750 0.91601749
1.00000000 0.96585784 0.96792966
1.00000000 0.99974598 0.99976112
1.00000000 0.99974597 0.99976111
1.00000000 0.99974597 0.99976111
1.00000000 0.99974597 0.99976111
0.00000000 0.00447484 0.00126682
0.00000000 0.00463743 0.00104258
0.00054915 0.00509355 0.00000000
0.00513666 0.00485861 0.00000000
0.01374135 0.00437865 0.00000000
0.02837717 0.00351115 0.00000000
0.05171371 0.00207921 0.00000000
0.08691227 0.00000000 0.00014097
0.12181625 0.00000000 0.00306108
0.16270113 0.00000000 0.00682485
0.20983282 0.00000000 0.01191713
0.26360855 0.00000000 0.01887736
0.32449873 0.00000000 0.02835793
0.39299718 0.00000000 0.04116148
0.46957088 0.00000000 0.05826684
0.55460471 0.00000000 0.08084197
0.64833662 0.00000000 0.10806072
0.75077810 0.00000000 0.13736739
0.86161780 0.00000000 0.16894742
0.98011398 0.00000000 0.20261051
1.00000000 0.21602510 0.32046964
1.00000000 0.36703793 0.43247400
1.00000000 0.48727492 0.53267454
1.00000000 0.59239935 0.62473331
1.00000000 0.68655413 0.70944038
1.00000000 0.77086597 0.78655424
1.00000000 0.84549957 0.85555742
1.00000000 0.91044834 0.91605119
1.00000000 0.96588346 0.96795246
1.00000000 0.99974601 0.99976114
1.00000000 0.99974600 0.99976113
1.00000000 0.99974599 0.99976112
1.00000000 0.99974598 0.99976112
0.00000000 0.00969095 0.00274350
0.00000000 0.00985187 0.00253598
0.00000000 0.01047100 0.00149653
0.00266597 0.01095852 0.00000000
0.01112446 0.01052230 0.00000000
0.02552315 0.00972564 0.00000000
0.04857750 0.00837780 0.00000000
0.08410610 0.00623733 0.00000000
0.12871412 0.00299857 0.00000000
0.17490849 0.00000000 0.00166753
0.21975154 0.00000000 0.00745123
0.27171699 0.00000000 0.01483222
0.33115575 0.00000000 0.02458330
0.39847655 0.00000000 0.03756993
0.47408439 0.00000000 0.05480692
0.55831856 0.00000000 0.07748469
0.65138315 0.00000000 0.10527515
0.75326423 0.00000000 0.13506555
0.86363124 0.00000000 0.16703268
0.98172795 0.00000000 0.20101149
1.00000000 0.21780041 0.32066264
1.00000000 0.36798806 0.43273495
1.00000000 0.48787733 0.53292387
1.00000000 0.59279955 0.62494395
1.00000000 0.68682252 0.70960620
1.00000000 0.77104467 0.78667834
1.00000000 0.84561664 0.85564662
1.00000000 0.91052348 0.91611322
1.00000000 0.96593061 0.96799443
1.00000000 0.99974607 0.99976118
1.00000000 0.99974604 0.99976116
1.00000000 0.99974602 0.99976115
1.00000000 0.99974600 0.99976113
0.00000000 0.01843550 0.00521907
0.00000000 0.01859580 0.00501788
0.00000000 0.01919767 0.00415000
0.00000000 0.02061706 0.00127393
0.00696900 0.02075235 0.00000000
0.02116228 0.02001679 0.00000000
0.04389218 0.01876496 0.00000000
0.07879134 0.01674320 0.00000000
0.12451487 0.01362662 0.00000000
0.17519453 0.00900393 0.00000000
0.23182070 0.00234985 0.00000000
0.28503717 0.00000000 0.00651942
0.34214411 0.00000000 0.01723867
0.40755440 0.00000000 0.03085649
0.48158270 0.00000000 0.04852720
0.56450104 0.00000000 0.07152127
0.65646245 0.00000000 0.10028993
0.75741391 0.00000000 0.13102060
0.86699481 0.00000000 0.16371152
0.98442595 0.00000000 0.19826386
1.00000000 0.22074538 0.32098260
1.00000000 0.36957334 0.43317048
1.00000000 0.48888418 0.53334069
1.00000000 0.59346898 0.62529637
1.00000000 0.68727170 0.70988377
1.00000000 0.77134382 0.78688614
1.00000000 0.84581270 0.85579603
1.00000000 0.91064934 0.91621712
1.00000000 0.96600959 0.96806475
1.00000000 0.99974617 0.99976126
1.00000000 0.99974611 0.99976122
1.00000000 0.99974607 0.99976119
1.00000000 0.99974604 0.99976117
0.00000000 0.03225501 0.00913136
0.00000000 0.03241499 0.00893309
0.00000000 0.03300972 0.00813503
0.00000000 0.03436124 0.00592896
0.00053260 0.03687921 0.00000000
0.01457797 0.03618644 0.00000000
0.03702122 0.03501730 0.00000000
0.07147674 0.03312210 0.00000000
0.11833965 0.03016469 0.00000000
0.17002083 0.02571191 0.00000000
0.22740471 0.01921565 0.00000000
0.29131383 0.00998306 0.00000000
0.35913576 0.00000000 0.00280328
0.42165461 0.00000000 0.01837029
0.49327281 0.00000000 0.03732593
0.57416797 0.00000000 0.06121428
0.66442241 0.00000000 0.09151040
0.76392829 0.00000000 0.12411340
0.87228214 0.00000000 0.15816149
0.98867136 0.00000000 0.19374247
1.00000000 0.22532353 0.32147922
1.00000000 0.37206025 0.43385400
1.00000000 0.49046799 0.53399667
1.00000000 0.59452341 0.62585171
1.00000000 0.68797978 0.71032149
1.00000000 0.77181567 0.78721399
1.00000000 0.84612206 0.85603184
1.00000000 0.91084800 0.91638116
1.00000000 0.96613428 0.96817579
1.00000000 0.99974632 0.99976137
1.00000000 0.99974623 0.99976130
1.00000000 0.99974616 0.99976125
1.00000000 0.99974611 0.99976121
0.00000000 0.05321512 0.01506514
0.00000000 0.05337481 0.01486840
0.00000000 0.05396556 0.01410459
0.00000000 0.05528768 0.01217807
0.00000000 0.05783365 0.00751749
0.00478353 0.06064878 0.00000000
0.02700380 0.05953851 0.00000000
0.06105520 0.05775035 0.00000000
0.10931777 0.05495336 0.00000000
0.16262119 0.05070315 0.00000000
0.22112000 0.04442613 0.00000000
0.28586336 0.03539852 0.00000000
0.35771632 0.02271594 0.00000000
0.43744163 0.00525666 0.00000000
0.51067878 0.00000000 0.01714040
0.58861380 0.00000000 0.04341301
0.67635333 0.00000000 0.07548237
0.77371608 0.00000000 0.11225607
0.88024144 0.00000000 0.14896588
0.99507182 0.00000000 0.18643364
1.00000000 0.23210230 0.32221178
1.00000000 0.37579210 0.43488018
1.00000000 0.49285444 0.53498572
1.00000000 0.59611541 0.62669067
1.00000000 0.68905017 0.71098355
1.00000000 0.77252956 0.78771028
1.00000000 0.84659040 0.85638902
1.00000000 0.91114890 0.91662974
1.00000000 0.96632323 0.96834413
1.00000000 0.99974656 0.99976154
1.00000000 0.99974641 0.99976143
1.00000000 0.99974630 0.99976135
1.00000000 0.99974621 0.99976129
0.00000000 0.08426035 0.02379136
0.00000000 0.08441651 0.02359554
0.00000000 0.08499126 0.02285066
0.00000000 0.08626002 0.02106562
0.00000000 0.08862684 0.01716648
0.00000000 0.09272908 0.00832979
0.01253846 0.09511741 0.00000000
0.04624991 0.09354105 0.00000000
0.09587655 0.09105704 0.00000000
0.15202223 0.08719946 0.00000000
0.21230225 0.08127480 0.00000000
0.27826852 0.07225769 0.00000000
0.35102393 0.05980984 0.00000000
0.43145067 0.04251776 0.00000000
0.52027904 0.01896773 0.00000000
0.60946075 0.00000000 0.01210165
0.69363084 0.00000000 0.04830439
0.78793337 0.00000000 0.09095770
0.89183215 0.00000000 0.13343396
1.00000000 0.01107766 0.17978158
1.00000000 0.24174543 0.32324490
1.00000000 0.38120032 0.43636782
1.00000000 0.49633352 0.53642889
1.00000000 0.59844317 0.62791844
1.00000000 0.69061810 0.71195412
1.00000000 0.77357661 0.78843870
1.00000000 0.84727796 0.85691373
1.00000000 0.91159097 0.91699518
1.00000000 0.96660098 0.96859173
1.00000000 0.99974691 0.99976180
1.00000000 0.99974667 0.99976162
1.00000000 0.99974649 0.99976149
1.00000000 0.99974635 0.99976139
0.00000000 0.12266008 0.03630922
0.00000000 0.12278318 0.03611414
0.00000000 0.12323596 0.03538098
0.00000000 0.12423336 0.03367667
0.00000000 0.12608337 0.03016954
0.00000000 0.12923766 0.02303171
0.00000000 0.13442943 0.00747511
0.02536237 0.13549880 0.00000000
0.07491379 0.13360930 0.00000000
0.13653812 0.13071301 0.00000000
0.19986435 0.12632008 0.00000000
0.26776417 0.11971183 0.00000000
0.34184089 0.10980807 0.00000000
0.42322755 0.09487479 0.00000000
0.51278932 0.07179581 0.00000000
0.61117746 0.04023408 0.00000000
0.71796809 0.00000000 0.00144295
0.80802595 0.00000000 0.05095086
0.90826298 0.00000000 0.10557407
1.00000000 0.04458736 0.17778388
1.00000000 0.25498747 0.32463685
1.00000000 0.38881107 0.43846074
1.00000000 0.50127007 0.53847892
1.00000000 0.60175998 0.62967002
1.00000000 0.69285805 0.71334228
1.00000000 0.77507515 0.78948235
1.00000000 0.84826335 0.85766647
1.00000000 0.91222520 0.91751997
1.00000000 0.96699981 0.96894758
1.00000000 0.99974742 0.99976217
1.00000000 0.99974705 0.99976190
1.00000000 0.99974677 0.99976170
1.00000000 0.99974656 0.99976154
0.00000000 0.16575457 0.05388584
0.00000000 0.16585270 0.05369156
0.00000000 0.16621348 0.05296691
0.00000000 0.16700727 0.05131392
0.00000000 0.16847526 0.04803554
0.00000000 0.17095981 0.04178147
0.00000000 0.17496824 0.02957892
0.00000000 0.18134740 0.00367458
0.04527469 0.18071404 0.00000000
0.11308586 0.17844315 0.00000000
0.18199004 0.17504085 0.00000000
0.25313785 0.16998342 0.00000000
0.32928915 0.16251313 0.00000000
0.41208233 0.15151269 0.00000000
0.50264870 0.13524345 0.00000000
0.60179100 0.11067798 0.00000000
0.71001981 0.07129964 0.00000000
0.82752118 0.01652802 0.00000000
0.93103286 0.00000000 0.05011088
1.00000000 0.09148784 0.17435064
1.00000000 0.27258943 0.32641368
1.00000000 0.39924240 0.44132378
1.00000000 0.50811145 0.54132342
1.00000000 0.60638321 0.63211549
1.00000000 0.69599161 0.71528738
1.00000000 0.77717688 0.79094830
1.00000000 0.84964803 0.85872576
1.00000000 0.91311779 0.91825951
1.00000000 0.96756180 0.96944963
1.00000000 0.99974813 0.99976269
1.00000000 0.99974758 0.99976229
1.00000000 0.99974717 0.99976199
1.00000000 0.99974686 0.99976176
0.00000000 0.21384953 0.07808508
0.00000000 0.21392830 0.07789193
0.00000000 0.21421785 0.07717494
0.00000000 0.21485444 0.07555917
0.00000000 0.21602974 0.07242955
0.00000000 0.21801141 0.06669994
0.00000000 0.22117993 0.05625445
0.00000000 0.22610565 0.03644255
0.00471632 0.23287102 0.00000000
0.07479386 0.23101420 0.00000000
0.15547232 0.22826708 0.00000000
0.23242876 0.22423216 0.00000000
0.31202035 0.21834182 0.00000000
0.39701263 0.20978643 0.00000000
0.48905361 0.19739371 0.00000000
0.58923011 0.17938785 0.00000000
0.69822257 0.15280697 0.00000000
0.81632241 0.11166355 0.00000000
0.94338326 0.04310895 0.00000000
1.00000000 0.14332542 0.16827357
1.00000000 0.29528006 0.32851595
1.00000000 0.41318677 0.44512936
1.00000000 0.51738838 0.54518444
1.00000000 0.61270087 0.63546426
1.00000000 0.70029481 0.71796445
1.00000000 0.78007326 0.79297285
1.00000000 0.85156137 0.86019241
1.00000000 0.91435376 0.91928548
1.00000000 0.96834129 0.97014722
1.00000000 0.99974911 0.99976341
1.00000000 0.99974832 0.99976283
1.00000000 0.99974772 0.99976239
1.00000000 0.99974727 0.99976206
0.00000000 0.26716522 0.10851490
0.00000000 0.26722869 0.10835341
0.00000000 0.26746190 0.10775453
0.00000000 0.26797442 0.10640796
0.00000000 0.26891969 0.10380984
0.00000000 0.27051012 0.09907663
0.00000000 0.27304142 0.09047089
0.00000000 0.27693528 0.07389505
0.00000000 0.28283166 0.04304307
0.01906323 0.28884234 0.00000000
0.11363037 0.28653364 0.00000000
0.20228255 0.28318347 0.00000000
0.28791890 0.27834998 0.00000000
0.37652530 0.27141115 0.00000000
0.47086671 0.26149296 0.00000000
0.57256409 0.24735259 0.00000000
0.68260342 0.22715336 0.00000000
0.80146761 0.19794189 0.00000000
0.92913604 0.15409729 0.00000000
1.00000000 0.19718912 0.15707810
1.00000000 0.32369381 0.33069315
1.00000000 0.43137422 0.45002627
1.00000000 0.52970439 0.55031065
1.00000000 0.62117250 0.63996617
1.00000000 0.70610321 0.72158867
1.00000000 0.78400134 0.79572661
1.00000000 0.85416569 0.86219429
1.00000000 0.91604095 0.92068969
1.00000000 0.96940784 0.97110405
1.00000000 0.99975046 0.99976440
1.00000000 0.99974934 0.99976357
1.00000000 0.99974848 0.99976295
1.00000000 0.99974784 0.99976248
0.00000000 0.32579502 0.14174186
0.00000000 0.32584616 0.14160893
0.00000000 0.32603410 0.14111738
0.00000000 0.32644698 0.14001998
0.00000000 0.32720801 0.13793233
0.00000000 0.32848681 0.13422455
0.00000000 0.33051689 0.12777453
0.00000000 0.33362301 0.11634007
0.00000000 0.33827031 0.09458003
0.00000000 0.34517361 0.04855534
0.04126750 0.35013053 0.00000000
0.15600729 0.34724316 0.00000000
0.25346908 0.34312513 0.00000000
0.34834389 0.33728059 0.00000000
0.44644372 0.32902201 0.00000000
0.55051191 0.31739862 0.00000000
0.66209275 0.30108360 0.00000000
0.78200139 0.27816306 0.00000000
0.91043572 0.24565942 0.00000000
1.00000000 0.25447522 0.13510202
1.00000000 0.35831787 0.33229309
1.00000000 0.45451469 0.45607643
1.00000000 0.54570788 0.55695629
1.00000000 0.63232003 0.64590672
1.00000000 0.71381173 0.72641731
1.00000000 0.78924724 0.79941898
1.00000000 0.85766070 0.86489118
1.00000000 0.91831400 0.92258836
1.00000000 0.97084928 0.97240160
1.00000000 0.99975229 0.99976573
1.00000000 0.99975072 0.99976458
1.00000000 0.99974952 0.99976371
1.00000000 0.99974861 0.99976304
0.00000000 0.38965475 0.17793275
0.00000000 0.38969587 0.17782284
0.00000000 0.38984694 0.17741716
0.00000000 0.39017875 0.17651587
0.00000000 0.39079010 0.17481770
0.00000000 0.39181657 0.17185275
0.00000000 0.39344357 0.16684182
0.00000000 0.39592552 0.15838075
0.00000000 0.39961624 0.14362553
0.00000000 0.40502529 0.11563348
0.00000000 0.41294599 0.05190234
0.07354071 0.41652229 0.00000000
0.20191047 0.41289363 0.00000000
0.30878762 0.40779868 0.00000000
0.41334789 0.40067697 0.00000000
0.52127736 0.39076386 0.00000000
0.63526235 0.37702032 0.00000000
0.75670874 0.35802537 0.00000000
0.88618087 0.33177970 0.00000000
1.00000000 0.31605797 0.08550137
1.00000000 0.39945896 0.33182066
1.00000000 0.48322358 0.46313314
1.00000000 0.56604267 0.56533732
1.00000000 0.64670299 0.65359164
1.00000000 0.72386546 0.73274656
1.00000000 0.79614503 0.80430040
1.00000000 0.86228580 0.86847897
1.00000000 0.92133763 0.92512663
1.00000000 0.97277480 0.97414304
1.00000000 0.99975474 0.99976751
1.00000000 0.99975257 0.99976593
1.00000000 0.99975091 0.99976472
1.00000000 0.99974965 0.99976380
0.00000000 0.45842251 0.21690515
0.00000000 0.45845538 0.21681400
0.00000000 0.45857615 0.21647804
0.00000000 0.45884137 0.21573417
0.00000000 0.45932988 0.21434191
0.00000000 0.46014968 0.21193941
0.00000000 0.46144786 0.20795767
0.00000000 0.46342468 0.20144528
0.00000000 0.46635427 0.19067238
0.00000000 0.47061844 0.17209241
0.00000000 0.47677056 0.13682943
0.00000000 0.48568369 0.05179288
0.11460446 0.48752595 0.00000000
0.25100414 0.48295316 0.00000000
0.36774430 0.47662339 0.00000000
0.48227591 0.46790032 0.00000000
0.60017443 0.45593118 0.00000000
0.72402167 0.43957945 0.00000000
0.85501537 0.41732530 0.00000000
0.99338782 0.38708626 0.00000000
1.00000000 0.44724009 0.32590834
1.00000000 0.51794193 0.47060606
1.00000000 0.59127601 0.57554991
1.00000000 0.66487315 0.66331474
1.00000000 0.73673619 0.74090007
1.00000000 0.80506719 0.81066047
1.00000000 0.86831810 0.87319219
1.00000000 0.92530804 0.92848257
1.00000000 0.97531738 0.97645731
1.00000000 0.99975797 0.99976987
1.00000000 0.99975503 0.99976773
1.00000000 0.99975277 0.99976608
1.00000000 0.99975105 0.99976482
0.00000000 0.53147488 0.25830573
0.00000000 0.53150094 0.25823006
0.00000000 0.53159665 0.25795140
0.00000000 0.53180685 0.25733587
0.00000000 0.53219394 0.25618918
0.00000000 0.53284330 0.25422660
0.00000000 0.53387096 0.25101766
0.00000000 0.53543412 0.24588161
0.00000000 0.53774602 0.23767317
0.00000000 0.54109836 0.22429498
0.00000000 0.54589844 0.20139850
0.00000000 0.55274085 0.15782190
0.00000000 0.56257690 0.04682477
0.15723487 0.56231129 0.00000000
0.30269955 0.55655062 0.00000000
0.42955087 0.54867976 0.00000000
0.55412856 0.53797598 0.00000000
0.68188974 0.52348937 0.00000000
0.81525687 0.50398139 0.00000000
0.95515014 0.47783682 0.00000000
1.00000000 0.50165513 0.30640065
1.00000000 0.55887109 0.47697688
1.00000000 0.62181080 0.58742404
1.00000000 0.68730641 0.67530073
1.00000000 0.75288002 0.75120504
1.00000000 0.81640233 0.81881962
1.00000000 0.87606293 0.87930341
1.00000000 0.93045040 0.93287008
1.00000000 0.97863451 0.97950315
1.00000000 0.99976221 0.99977295
1.00000000 0.99975827 0.99977009
1.00000000 0.99975523 0.99976787
1.00000000 0.99975290 0.99976618
0.00000000 0.60783511 0.30158097
0.00000000 0.60785553 0.30151817
0.00000000 0.60793051 0.30128708
0.00000000 0.60809518 0.30077747
0.00000000 0.60839838 0.29983126
0.00000000 0.60890691 0.29822116
0.00000000 0.60971136 0.29561349
0.00000000 0.61093413 0.29150212
0.00000000 0.61274038 0.28508342
0.00000000 0.61535369 0.27499933
0.00000000 0.61907999 0.25874783
0.00000000 0.62434805 0.23108670
0.00000000 0.63178910 0.17821326
0.00000000 0.64242800 0.03566963
0.20107946 0.63967397 0.00000000
0.35613581 0.63244713 0.00000000
0.49310703 0.62269054 0.00000000
0.62755505 0.60958655 0.00000000
0.76479660 0.59208337 0.00000000
0.90704047 0.56884287 0.00000000
1.00000000 0.56278861 0.24852586
1.00000000 0.60595745 0.47865009
1.00000000 0.65779865 0.60025165
1.00000000 0.71431573 0.68961219
1.00000000 0.77267354 0.76395302
1.00000000 0.83051596 0.82911238
1.00000000 0.88583320 0.88711789
1.00000000 0.93700997 0.93853956
1.00000000 0.98290560 0.98347238
1.00000000 0.99976768 0.99977693
1.00000000 0.99976250 0.99977316
1.00000000 0.99975846 0.99977023
1.00000000 0.99975535 0.99976796
0.00000000 0.68615588 0.34596729
0.00000000 0.68617165 0.34591528
0.00000000 0.68622955 0.34572399
0.00000000 0.68635668 0.34530266
0.00000000 0.68659077 0.34452222
0.00000000 0.68698330 0.34319970
0.00000000 0.68760410 0.34107221
0.00000000 0.68854729 0.33775337
0.00000000 0.68993947 0.33265586
0.00000000 0.69195099 0.32484459
0.00000000 0.69481228 0.31273397
0.00000000 0.69883916 0.29338804
0.00000000 0.70447647 0.26059487
0.00000000 0.71238551 0.19757956
0.00000000 0.72365713 0.01733402
0.24541613 0.71805058 0.00000000
0.41019583 0.70906132 0.00000000
0.55703115 0.69705849 0.00000000
0.70090751 0.68112492 0.00000000
0.84697409 0.66010830 0.00000000
0.99718122 0.63258196 0.00000000
1.00000000 0.65901365 0.46650636
1.00000000 0.69908658 0.61221462
1.00000000 0.74595941 0.70599999
1.00000000 0.79633169 0.77934480
1.00000000 0.84769207 0.84186270
1.00000000 0.89791391 0.89696342
1.00000000 0.94523354 0.94577575
1.00000000 0.98832400 0.98859199
1.00000000 0.99977467 0.99978198
1.00000000 0.99976794 0.99977711
1.00000000 0.99976266 0.99977328
1.00000000 0.99975855 0.99977029
0.00000000 0.76476097 0.39051474
0.00000000 0.76477293 0.39047182
0.00000000 0.76481688 0.39031404
0.00000000 0.76491338 0.38996681
0.00000000 0.76509105 0.38932473
0.00000000 0.76538895 0.38823989
0.00000000 0.76586000 0.38650322
0.00000000 0.76657547 0.38381450
0.00000000 0.76763101 0.37973222
0.00000000 0.76915487 0.37358440
0.00000000 0.77131937 0.36429928
0.00000000 0.77435772 0.35005489
0.00000000 0.77859051 0.32746312
0.00000000 0.78447229 0.28929031
0.00000000 0.79268653 0.21551318
0.00851089 0.80390616 0.00000000
0.28929006 0.79560566 0.00000000
0.46357224 0.78456714 0.00000000
0.61975333 0.76997669 0.00000000
0.77236823 0.75081835 0.00000000
0.92637511 0.72584758 0.00000000
1.00000000 0.71830758 0.41066256
1.00000000 0.74526401 0.61887118
1.00000000 0.78197163 0.72363941
1.00000000 0.82381918 0.79742457
1.00000000 0.86805833 0.85735888
1.00000000 0.91251010 0.90917852
1.00000000 0.95533818 0.95489365
1.00000000 0.99508082 0.99512509
1.00000000 0.99978344 0.99978829
1.00000000 0.99977488 0.99978213
1.00000000 0.99976805 0.99977719
1.00000000 0.99976270 0.99977331
0.00000000 0.84176093 0.43415252
0.00000000 0.84176985 0.43411730
0.00000000 0.84180258 0.43398782
0.00000000 0.84187446 0.43370305
0.00000000 0.84200679 0.43317712
0.00000000 0.84222866 0.43229044
0.00000000 0.84257944 0.43087594
0.00000000 0.84311214 0.42869792
0.00000000 0.84389780 0.42541821
0.00000000 0.84503146 0.42053939
0.00000000 0.84664033 0.41330395
0.00000000 0.84889529 0.40250231
0.00000000 0.85202808 0.38607448
0.00000000 0.85635875 0.36017580
0.00000000 0.86234487 0.31653007
0.00000000 0.87068355 0.23167853
0.04078291 0.88050606 0.00000000
0.33162321 0.87039485 0.00000000
0.51488498 0.85706420 0.00000000
0.67966692 0.83960610 0.00000000
0.84013789 0.81691199 0.00000000
1.00000000 0.78780343 0.01822562
1.00000000 0.79602220 0.60753235
1.00000000 0.82176197 0.74053100
1.00000000 0.85477707 0.81801556
1.00000000 0.89150499 0.87585003
1.00000000 0.92968081 0.92411183
1.00000000 0.96746611 0.96623813
1.00000000 0.99980716 0.99980518
1.00000000 0.99979425 0.99979603
1.00000000 0.99978357 0.99978839
1.00000000 0.99977492 0.99978216
1.00000000 0.99976803 0.99977717
0.00000000 0.91523681 0.47579312
0.00000000 0.91524332 0.47576440
0.00000000 0.91526723 0.47565883
0.00000000 0.91531972 0.47542678
0.00000000 0.91541636 0.47499858
0.00000000 0.91557839 0.47427779
0.00000000 0.91583454 0.47313085
0.00000000 0.91622349 0.47137174
0.00000000 0.91679704 0.46873851
0.00000000 0.91762438 0.46485566
0.00000000 0.91879790 0.45917100
0.00000000 0.92044122 0.45084335
0.00000000 0.92272062 0.43852878
0.00000000 0.92586240 0.41993545
0.00000000 0.93018111 0.39077315
0.00000000 0.93613107 0.34173836
0.00000000 0.94441495 0.24586908
0.07780543 0.95264730 0.00000000
0.37134367 0.94058026 0.00000000
0.56283259 0.92479281 0.00000000
0.73531109 0.90428774 0.00000000
0.90264623 0.87787443 0.00000000
1.00000000 0.85314618 0.51991694
1.00000000 0.86459429 0.75149521
1.00000000 0.88849188 0.84067330
1.00000000 0.91761351 0.89762251
1.00000000 0.94926715 0.94216681
1.00000000 0.98162765 0.98020367
1.00000000 0.99982265 0.99981599
