modules/home-manager/gui/hypr/hyprland/assets/pq-to-sdr.cube
TITLE "PQ BT.2020 HDR to SDR BT.709 (Hable Filmic)"
LUT_3D_SIZE 9
# PQ/BT.2020 -> Hable filmic tonemap -> BT.709
# Peak: 1000 nits, Hable white: 10.0x SDR
0.00000000 0.00000000 0.00000000
0.01272741 0.00000000 0.00075861
0.10827560 0.00000000 0.00658573
0.31872019 0.00000000 0.03125424
0.64571262 0.00000000 0.11034582
1.00000000 0.21449057 0.32030277
1.00000000 0.68632358 0.70929796
1.00000000 0.96584299 0.96791644
1.00000000 0.99974596 0.99976110
0.00000000 0.00969095 0.00274350
0.01112446 0.01052230 0.00000000
0.12871412 0.00299857 0.00000000
0.33115575 0.00000000 0.02458330
0.65138315 0.00000000 0.10527515
1.00000000 0.21780041 0.32066264
1.00000000 0.68682252 0.70960620
1.00000000 0.96593061 0.96799443
1.00000000 0.99974600 0.99976113
0.00000000 0.08426035 0.02379136
0.00000000 0.08862684 0.01716648
0.09587655 0.09105704 0.00000000
0.35102393 0.05980984 0.00000000
0.69363084 0.00000000 0.04830439
1.00000000 0.24174543 0.32324490
1.00000000 0.69061810 0.71195412
1.00000000 0.96660098 0.96859173
1.00000000 0.99974635 0.99976139
0.00000000 0.26716522 0.10851490
0.00000000 0.26891969 0.10380984
0.00000000 0.28283166 0.04304307
0.28791890 0.27834998 0.00000000
0.68260342 0.22715336 0.00000000
1.00000000 0.32369381 0.33069315
1.00000000 0.70610321 0.72158867
1.00000000 0.96940784 0.97110405
1.00000000 0.99974784 0.99976248
0.00000000 0.53147488 0.25830573
0.00000000 0.53219394 0.25618918
0.00000000 0.53774602 0.23767317
0.00000000 0.56257690 0.04682477
0.55412856 0.53797598 0.00000000
1.00000000 0.50165513 0.30640065
1.00000000 0.75288002 0.75120504
1.00000000 0.97863451 0.97950315
1.00000000 0.99975290 0.99976618
0.00000000 0.84176093 0.43415252
0.00000000 0.84200679 0.43317712
0.00000000 0.84389780 0.42541821
0.00000000 0.85202808 0.38607448
0.04078291 0.88050606 0.00000000
0.84013789 0.81691199 0.00000000
1.00000000 0.85477707 0.81801556
1.00000000 0.99980716 0.99980518
1.00000000 0.99976803 0.99977717
0.76752834 1.00000000 0.84055118
0.76772851 1.00000000 0.84057999
0.76926172 1.00000000 0.84080061
0.77571278 1.00000000 0.84172808
0.79729480 1.00000000 0.84481151
0.85840911 1.00000000 0.85301265
1.00000000 0.99530335 0.90886956
1.00000000 0.99988103 0.99985366
1.00000000 0.99980649 0.99980470
1.00000000 1.00000000 1.00000000
1.00000000 1.00000000 1.00000000
1.00000000 1.00000000 1.00000000
1.00000000 1.00000000 1.00000000
1.00000000 1.00000000 1.00000000
1.00000000 1.00000000 1.00000000
1.00000000 1.00000000 1.00000000
1.00000000 0.99998360 0.99969697
1.00000000 0.99987925 0.99985265
1.00000000 1.00000000 1.00000000
1.00000000 1.00000000 1.00000000
1.00000000 1.00000000 1.00000000
1.00000000 1.00000000 1.00000000
1.00000000 1.00000000 1.00000000
1.00000000 1.00000000 1.00000000
1.00000000 1.00000000 1.00000000
1.00000000 1.00000000 1.00000000
1.00000000 0.99998360 0.99969697
0.00000000 0.00030453 0.00562554
0.01280355 0.00000000 0.00917814
0.10842530 0.00000000 0.01470816
0.31877840 0.00000000 0.03930353
0.64571599 0.00000000 0.11667717
1.00000000 0.21451998 0.32215204
1.00000000 0.68635228 0.70946890
1.00000000 0.96585026 0.96792747
1.00000000 0.99974597 0.99976112
0.00000000 0.00990081 0.00931012
0.01051494 0.01051494 0.01051388
0.13494657 0.00045466 0.00904483
0.33112560 0.00000000 0.03335361
0.65137508 0.00000000 0.11193702
1.00000000 0.21782885 0.32251004
1.00000000 0.68685115 0.70977692
1.00000000 0.96593787 0.96800545
1.00000000 0.99974601 0.99976115
0.00000000 0.08445502 0.03043759
0.00000000 0.08869297 0.02508841
0.09640526 0.09161930 0.00091985
0.36010974 0.05230338 0.00000000
0.69353568 0.00000000 0.05765473
1.00000000 0.24176732 0.32507923
1.00000000 0.69064618 0.71212318
1.00000000 0.96660820 0.96860264
1.00000000 0.99974636 0.99976141
0.00000000 0.26723416 0.11390295
0.00000000 0.26897811 0.10954183
0.00000000 0.28278885 0.05215942
0.28816930 0.27859420 0.00000000
0.68608495 0.22446805 0.00000000
1.00000000 0.32369745 0.33249576
1.00000000 0.70612912 0.72175105
1.00000000 0.96941490 0.97111451
1.00000000 0.99974785 0.99976250
0.00000000 0.53148750 0.26079513
0.00000000 0.53220527 0.25871945
0.00000000 0.53774700 0.24057378
0.00000000 0.56251885 0.05576990
0.55422315 0.53806823 0.00000000
1.00000000 0.50162875 0.30842473
1.00000000 0.75290000 0.75134775
1.00000000 0.97864103 0.97951209
1.00000000 0.99975291 0.99976620
0.00000000 0.84174977 0.43525541
0.00000000 0.84199546 0.43428534
0.00000000 0.84388516 0.42656940
0.00000000 0.85200948 0.38745890
0.03422659 0.88079132 0.00000000
0.84016490 0.81693833 0.00000000
1.00000000 0.85478701 0.81811832
1.00000000 0.99980718 0.99980523
1.00000000 0.99976804 0.99977719
0.76753629 1.00000000 0.84065754
0.76773646 1.00000000 0.84068633
0.76926957 1.00000000 0.84090683
0.77572023 1.00000000 0.84183376
0.79730094 1.00000000 0.84491544
0.85841174 1.00000000 0.85311211
1.00000000 0.99530570 0.90891751
1.00000000 0.99988105 0.99985370
1.00000000 0.99980650 0.99980472
1.00000000 1.00000000 1.00000000
1.00000000 1.00000000 1.00000000
1.00000000 1.00000000 1.00000000
1.00000000 1.00000000 1.00000000
1.00000000 1.00000000 1.00000000
1.00000000 1.00000000 1.00000000
1.00000000 1.00000000 1.00000000
1.00000000 0.99998360 0.99969702
1.00000000 0.99987926 0.99985266
1.00000000 1.00000000 1.00000000
1.00000000 1.00000000 1.00000000
1.00000000 1.00000000 1.00000000
1.00000000 1.00000000 1.00000000
1.00000000 1.00000000 1.00000000
1.00000000 1.00000000 1.00000000
1.00000000 1.00000000 1.00000000
1.00000000 1.00000000 1.00000000
1.00000000 0.99998360 0.99969699
0.00000000 0.00264332 0.04882964
0.01028361 0.00000000 0.08321686
0.10882779 0.00000000 0.07967396
0.31914761 0.00000000 0.10069261
0.64573170 0.00000000 0.15929953
1.00000000 0.21474320 0.33603859
1.00000000 0.68657251 0.71077939
1.00000000 0.96590604 0.96801213
1.00000000 0.99974605 0.99976127
0.00000000 0.01185857 0.05630719
0.00463734 0.00984548 0.09992881
0.13016281 0.00000000 0.09827992
0.33084125 0.00000000 0.10015945
0.65130378 0.00000000 0.15638460
1.00000000 0.21804469 0.33638317
1.00000000 0.68707082 0.71108575
1.00000000 0.96599361 0.96809000
1.00000000 0.99974610 0.99976130
0.00000000 0.08601304 0.08071457
0.00000000 0.08937962 0.08423587
0.09096563 0.09096563 0.09095708
0.36268472 0.04791444 0.08430783
0.69280251 0.00000000 0.12357767
1.00000000 0.24193310 0.33885854
1.00000000 0.69086166 0.71341936
1.00000000 0.96666363 0.96868635
1.00000000 0.99974645 0.99976156
0.00000000 0.26776941 0.15056670
0.00000000 0.26943455 0.14817881
0.00000000 0.28249129 0.11719526
0.28771350 0.27921247 0.04841676
0.70534125 0.20819608 0.02626081
1.00000000 0.32372363 0.34604832
1.00000000 0.70632799 0.72299603
1.00000000 0.96946903 0.97119470
1.00000000 0.99974793 0.99976265
0.00000000 0.53158514 0.27921900
0.00000000 0.53229313 0.27743079
0.00000000 0.53775590 0.26186337
0.00000000 0.56207863 0.11943361
0.55494831 0.53877554 0.00000000
1.00000000 0.50142467 0.32358926
1.00000000 0.75305338 0.75244216
1.00000000 0.97869107 0.97958073
1.00000000 0.99975299 0.99976634
0.00000000 0.84166422 0.44362598
0.00000000 0.84190863 0.44269583
0.00000000 0.84378833 0.43530066
0.00000000 0.85186698 0.39792203
0.00000000 0.88215594 0.01709237
0.84037213 0.81714047 0.00000000
1.00000000 0.85486327 0.81890672
1.00000000 0.99980738 0.99980562
1.00000000 0.99976811 0.99977733
0.76759741 1.00000000 0.84147342
0.76779748 1.00000000 0.84150208
0.76932985 1.00000000 0.84172160
0.77577744 1.00000000 0.84264443
0.79734809 1.00000000 0.84571262
0.85843193 1.00000000 0.85387504
1.00000000 0.99532372 0.90928549
1.00000000 0.99988116 0.99985400
1.00000000 0.99980655 0.99980484
1.00000000 1.00000000 1.00000000
1.00000000 1.00000000 1.00000000
1.00000000 1.00000000 1.00000000
1.00000000 1.00000000 1.00000000
1.00000000 1.00000000 1.00000000
1.00000000 1.00000000 1.00000000
1.00000000 1.00000000 1.00000000
1.00000000 0.99998363 0.99969745
1.00000000 0.99987930 0.99985275
1.00000000 1.00000000 1.00000000
1.00000000 1.00000000 1.00000000
1.00000000 1.00000000 1.00000000
1.00000000 1.00000000 1.00000000
1.00000000 1.00000000 1.00000000
1.00000000 1.00000000 1.00000000
1.00000000 1.00000000 1.00000000
1.00000000 1.00000000 1.00000000
1.00000000 0.99998361 0.99969712
0.00000000 0.01260199 0.19086121
0.00000000 0.00620276 0.24218197
0.10236802 0.00000000 0.26413533
0.31941396 0.00000000 0.26120271
0.64560614 0.00000000 0.28529756
1.00000000 0.21564236 0.38997947
1.00000000 0.68750670 0.71631746
1.00000000 0.96614326 0.96837111
1.00000000 0.99974640 0.99976191
0.00000000 0.02147810 0.19683773
0.00000000 0.01742778 0.23639071
0.10846064 0.00000000 0.29548579
0.32873926 0.00000000 0.26923031
0.65082488 0.00000000 0.28565725
1.00000000 0.21891318 0.39028077
1.00000000 0.68800266 0.71661683
1.00000000 0.96623066 0.96844851
1.00000000 0.99974644 0.99976194
0.00000000 0.09336741 0.21829235
0.00000000 0.09446767 0.23107137
0.06596676 0.08814282 0.30010400
0.35428944 0.04499066 0.29614786
0.68963529 0.00000000 0.28491993
1.00000000 0.24259320 0.39245400
1.00000000 0.69177572 0.71889741
1.00000000 0.96689935 0.96904130
1.00000000 0.99974679 0.99976220
0.00000000 0.27014957 0.26007112
0.00000000 0.27151537 0.26139939
0.00000000 0.28176748 0.27136920
0.27761916 0.27761916 0.27760221
0.70057067 0.20641942 0.26157372
1.00000000 0.32379959 0.39893190
1.00000000 0.70717168 0.72825935
1.00000000 0.96969926 0.97153474
1.00000000 0.99974827 0.99976328
0.00000000 0.53201549 0.34718078
0.00000000 0.53268315 0.34626997
0.00000000 0.53782071 0.33833125
0.00000000 0.56030916 0.27463430
0.55183652 0.53851328 0.19424774
1.00000000 0.50052550 0.38203831
1.00000000 0.75370430 0.75707322
1.00000000 0.97890390 0.97987164
1.00000000 0.99975333 0.99976697
0.00000000 0.84130318 0.47748803
0.00000000 0.84154217 0.47670874
0.00000000 0.84337973 0.47052179
0.00000000 0.85126611 0.43953505
0.00000000 0.88062894 0.19249122
0.84125163 0.81799836 0.00000000
1.00000000 0.85518709 0.82224909
1.00000000 0.99980819 0.99980728
1.00000000 0.99976842 0.99977792
0.76785780 1.00000000 0.84493025
0.76805746 1.00000000 0.84495837
0.76958670 1.00000000 0.84517376
0.77602121 1.00000000 0.84607927
0.79754913 1.00000000 0.84909060
0.85851834 1.00000000 0.85710855
1.00000000 0.99540034 0.91084837
1.00000000 0.99988165 0.99985527
1.00000000 0.99980681 0.99980536
1.00000000 1.00000000 1.00000000
1.00000000 1.00000000 1.00000000
1.00000000 1.00000000 1.00000000
1.00000000 1.00000000 1.00000000
1.00000000 1.00000000 1.00000000
1.00000000 1.00000000 1.00000000
1.00000000 1.00000000 1.00000000
1.00000000 0.99998372 0.99969925
1.00000000 0.99987945 0.99985315
1.00000000 1.00000000 1.00000000
1.00000000 1.00000000 1.00000000
1.00000000 1.00000000 1.00000000
1.00000000 1.00000000 1.00000000
1.00000000 1.00000000 1.00000000
1.00000000 1.00000000 1.00000000
1.00000000 1.00000000 1.00000000
1.00000000 1.00000000 1.00000000
1.00000000 0.99998364 0.99969768
0.00000000 0.04717592 0.42600892
0.00000000 0.04277966 0.44753674
0.04749128 0.00000000 0.57669104
0.31025373 0.00000000 0.55266423
0.64311367 0.00000000 0.53986816
1.00000000 0.21813172 0.53849255
1.00000000 0.69072219 0.73512966
1.00000000 0.96696713 0.96960483
1.00000000 0.99974760 0.99976413
0.00000000 0.05586747 0.42914496
0.00000000 0.05195093 0.44928882
0.03563088 0.00000000 0.60240265
0.31439014 0.00000000 0.56533049
0.64728225 0.00000000 0.54345664
1.00000000 0.22130449 0.53872403
1.00000000 0.69121011 0.73540598
1.00000000 0.96705392 0.96968062
1.00000000 0.99974765 0.99976416
0.00000000 0.11988034 0.44579334
0.00000000 0.11871137 0.45904958
0.00000000 0.08833581 0.59692155
0.32359208 0.03487364 0.62345096
0.67809775 0.00000000 0.56998368
1.00000000 0.24431469 0.54041708
1.00000000 0.69492236 0.73751147
1.00000000 0.96771804 0.97026110
1.00000000 0.99974800 0.99976441
0.00000000 0.27924870 0.47510355
0.00000000 0.27989185 0.47971866
0.00000000 0.28376565 0.51920281
0.23999587 0.27203799 0.60702341
0.68386426 0.20020000 0.58889564
1.00000000 0.32360740 0.54593956
1.00000000 0.71007739 0.74616341
1.00000000 0.97049896 0.97270296
1.00000000 0.99974947 0.99976548
0.00000000 0.53367902 0.51640573
0.00000000 0.53422092 0.51693273
0.00000000 0.53834906 0.52094729
0.00000000 0.55529977 0.53743000
0.53404833 0.53404833 0.53401984
1.00000000 0.49698999 0.54124092
1.00000000 0.75594888 0.77287716
1.00000000 0.97964339 0.98086986
1.00000000 0.99975450 0.99976913
0.00000000 0.84008310 0.57872356
0.00000000 0.84030391 0.57831525
0.00000000 0.84199995 0.57507523
0.00000000 0.84924195 0.55896720
0.00000000 0.87553272 0.45327012
0.83364010 0.81535557 0.35781726
1.00000000 0.85630590 0.83373050
1.00000000 0.99981101 0.99981300
1.00000000 0.99976951 0.99977998
0.76876855 1.00000000 0.85677881
0.76896679 1.00000000 0.85680511
0.77048518 1.00000000 0.85700655
0.77687434 1.00000000 0.85785363
0.79825410 1.00000000 0.86067296
0.85882530 1.00000000 0.86820384
1.00000000 0.99566629 0.91625167
1.00000000 0.99988336 0.99985964
1.00000000 0.99980769 0.99980715
1.00000000 1.00000000 1.00000000
1.00000000 1.00000000 1.00000000
1.00000000 1.00000000 1.00000000
1.00000000 1.00000000 1.00000000
1.00000000 1.00000000 1.00000000
1.00000000 1.00000000 1.00000000
1.00000000 1.00000000 1.00000000
1.00000000 0.99998406 0.99970552
1.00000000 0.99987999 0.99985452
1.00000000 1.00000000 1.00000000
1.00000000 1.00000000 1.00000000
1.00000000 1.00000000 1.00000000
1.00000000 1.00000000 1.00000000
1.00000000 1.00000000 1.00000000
1.00000000 1.00000000 1.00000000
1.00000000 1.00000000 1.00000000
1.00000000 1.00000000 1.00000000
1.00000000 0.99998374 0.99969962
0.00000000 0.14173641 0.79529796
0.00000000 0.13893400 0.80579412
0.00000000 0.10599539 0.89654751
0.24357986 0.03284241 1.00000000
0.62175736 0.00000000 0.98441921
1.00000000 0.21922936 0.85773608
1.00000000 0.70060573 0.79080065
1.00000000 0.96957341 0.97337279
1.00000000 0.99975145 0.99977114
0.00000000 0.14749511 0.79663341
0.00000000 0.14486459 0.80691857
0.00000000 0.11429037 0.89564157
0.24213141 0.04272713 1.00000000
0.62373241 0.00000000 0.98985323
1.00000000 0.22216760 0.85795390
1.00000000 0.70106938 0.79101439
1.00000000 0.96965834 0.97344356
1.00000000 0.99975150 0.99977117
0.00000000 0.18739565 0.80526785
0.00000000 0.18571417 0.81415343
0.00000000 0.16713446 0.88964709
0.23055412 0.11457669 1.00000000
0.62337126 0.05305004 1.00000000
1.00000000 0.24354498 0.85961070
1.00000000 0.70459814 0.79264403
1.00000000 0.97030815 0.97398563
1.00000000 0.99975184 0.99977142
0.00000000 0.30980113 0.82415089
0.00000000 0.30951880 0.82957959
0.00000000 0.30612880 0.87405676
0.16921134 0.28260605 1.00000000
0.59930793 0.24605940 1.00000000
1.00000000 0.31784429 0.86636552
1.00000000 0.71902490 0.79935857
1.00000000 0.97302980 0.97626648
1.00000000 0.99975329 0.99977245
0.00000000 0.54013542 0.83299551
0.00000000 0.54038797 0.83484838
0.00000000 0.54222045 0.84947313
0.00000000 0.54745604 0.92159540
0.47953562 0.52216440 1.00000000
1.00000000 0.48082311 0.88668733
1.00000000 0.76288727 0.82026884
1.00000000 0.98198613 0.98390187
1.00000000 0.99975822 0.99977599
0.00000000 0.83654210 0.81100009
0.00000000 0.83671112 0.81116446
0.00000000 0.83800459 0.81242224
0.00000000 0.84342465 0.81769262
0.00000000 0.86129524 0.83506677
0.80457794 0.80457794 0.80453728
1.00000000 0.85978509 0.86884108
1.00000000 0.99981995 0.99983068
1.00000000 0.99977296 0.99978650
0.77171938 1.00000000 0.89273782
0.77191317 1.00000000 0.89275884
0.77339747 1.00000000 0.89291987
0.77964419 1.00000000 0.89359754
0.80055803 1.00000000 0.89586021
0.85987222 1.00000000 0.90198439
1.00000000 0.99650613 0.93309822
1.00000000 0.99988878 0.99987320
1.00000000 0.99981050 0.99981284
1.00000000 1.00000000 1.00000000
1.00000000 1.00000000 1.00000000
1.00000000 1.00000000 1.00000000
1.00000000 1.00000000 1.00000000
1.00000000 1.00000000 1.00000000
1.00000000 1.00000000 1.00000000
1.00000000 1.00000000 1.00000000
1.00000000 0.99998514 0.99972550
1.00000000 0.99988170 0.99985889
1.00000000 1.00000000 1.00000000
1.00000000 1.00000000 1.00000000
1.00000000 1.00000000 1.00000000
1.00000000 1.00000000 1.00000000
1.00000000 1.00000000 1.00000000
1.00000000 1.00000000 1.00000000
1.00000000 1.00000000 1.00000000
1.00000000 1.00000000 1.00000000
1.00000000 0.99998408 0.99970585
0.29487238 0.37018797 1.00000000
0.29683685 0.37061413 1.00000000
0.31148969 0.37385951 1.00000000
0.36689552 0.38716744 1.00000000
0.50891523 0.42812321 1.00000000
0.76710292 0.52261009 1.00000000
1.00000000 0.72780338 0.93179106
1.00000000 0.97738942 0.98339114
1.00000000 0.99976323 0.99979215
0.29610835 0.37220633 1.00000000
0.29806283 0.37262899 1.00000000
0.31264408 0.37584795 1.00000000
0.36781928 0.38905108 1.00000000
0.50943399 0.42971657 1.00000000
0.76721565 0.52367705 1.00000000
1.00000000 0.72820368 0.93187764
1.00000000 0.97746895 0.98344744
1.00000000 0.99976327 0.99979217
0.30536176 0.38723083 1.00000000
0.30724329 0.38762836 1.00000000
0.32130109 0.39065722 1.00000000
0.37477668 0.40310447 1.00000000
0.51336519 0.44165954 1.00000000
0.76807395 0.53173602 1.00000000
1.00000000 0.73125285 0.93253854
1.00000000 0.97807763 0.98387873
1.00000000 0.99976359 0.99979240
0.34070487 0.44342663 1.00000000
0.34233551 0.44374223 1.00000000
0.35457768 0.44615012 1.00000000
0.40197804 0.45610406 1.00000000
0.52913335 0.48749517 1.00000000
0.77158736 0.56362968 1.00000000
1.00000000 0.74376684 0.93527656
1.00000000 0.98062866 0.98569474
1.00000000 0.99976496 0.99979333
0.43068163 0.58094140 1.00000000
0.43182024 0.58111323 1.00000000
0.44043929 0.58242694 1.00000000
0.47490614 0.58790847 1.00000000
0.57429799 0.60572247 1.00000000
0.78228246 0.65211820 1.00000000
1.00000000 0.78227378 0.94395830
1.00000000 0.98904285 0.99178808
1.00000000 0.99976962 0.99979652
0.57747506 0.79821864 1.00000000
0.57807905 0.79826064 1.00000000
0.58268445 0.79858240 1.00000000
0.60167608 0.79993650 1.00000000
0.66122505 0.80446824 1.00000000
0.80542401 0.81726867 1.00000000
1.00000000 0.86965254 0.96506194
1.00000000 0.99984675 0.99987956
1.00000000 0.99978356 0.99980603
0.78134890 1.00000000 0.98844263
0.78152971 1.00000000 0.98845096
0.78291474 1.00000000 0.98851481
0.78874627 1.00000000 0.98878494
0.80829843 1.00000000 0.98970594
0.86390272 1.00000000 0.99245419
0.99797077 0.99797077 0.99792140
1.00000000 0.99990537 0.99991100
1.00000000 0.99981915 0.99982993
1.00000000 1.00000000 1.00000000
1.00000000 1.00000000 1.00000000
1.00000000 1.00000000 1.00000000
1.00000000 1.00000000 1.00000000
1.00000000 1.00000000 1.00000000
1.00000000 1.00000000 1.00000000
1.00000000 1.00000000 1.00000000
1.00000000 0.99998845 0.99978655
1.00000000 0.99988701 0.99987203
1.00000000 1.00000000 1.00000000
1.00000000 1.00000000 1.00000000
1.00000000 1.00000000 1.00000000
1.00000000 1.00000000 1.00000000
1.00000000 1.00000000 1.00000000
1.00000000 1.00000000 1.00000000
1.00000000 1.00000000 1.00000000
1.00000000 1.00000000 1.00000000
1.00000000 0.99998512 0.99972511
0.64122780 0.66608053 1.00000000
0.64156459 0.66626397 1.00000000
0.64413665 0.66766728 1.00000000
0.65481550 0.67353883 1.00000000
0.68895215 0.69280401 1.00000000
0.77407183 0.74438863 1.00000000
0.91729667 0.84827911 1.00000000
1.00000000 0.99954472 0.99987111
1.00000000 0.99979837 0.99985042
0.64172964 0.66665884 1.00000000
0.64206571 0.66684180 1.00000000
0.64463227 0.66824139 1.00000000
0.65528869 0.67409755 1.00000000
0.68935786 0.69331423 1.00000000
0.77433386 0.74478298 1.00000000
0.91737953 0.84849570 1.00000000
1.00000000 0.99961090 0.99988984
1.00000000 0.99979840 0.99985044
0.64554545 0.67105086 1.00000000
0.64587606 0.67123014 1.00000000
0.64840105 0.67260170 1.00000000
0.65888794 0.67834189 1.00000000
0.69244649 0.69719259 1.00000000
0.77633253 0.74778527 1.00000000
0.91801355 0.85014894 1.00000000
1.00000000 0.99989828 0.99997120
1.00000000 0.99979867 0.99985060
0.66108175 0.68883714 1.00000000
0.66139073 0.68900204 1.00000000
0.66375117 0.69026382 1.00000000
0.67356591 0.69554932 1.00000000
0.70509002 0.71296015 1.00000000
0.78458436 0.76007519 1.00000000
0.92067001 0.85699634 1.00000000
1.00000000 0.99990013 0.99997172
1.00000000 0.99979981 0.99985127
0.70778039 0.74132669 1.00000000
0.70803004 0.74145347 1.00000000
0.70993861 0.74242406 1.00000000
0.71789908 0.74649994 1.00000000
0.74372862 0.76004133 1.00000000
0.81050127 0.79755919 1.00000000
0.92944062 0.87868800 1.00000000
1.00000000 0.99990625 0.99997345
1.00000000 0.99980369 0.99985356
0.80965574 0.84952462 1.00000000
0.80980196 0.84959076 1.00000000
0.81092105 0.85009761 1.00000000
0.81561333 0.85223608 1.00000000
0.83111034 0.85945779 1.00000000
0.87304816 0.88043987 1.00000000
0.95370116 0.93119835 1.00000000
1.00000000 0.99992270 0.99997811
1.00000000 0.99981535 0.99986039
0.96591618 0.98153749 1.00000000
0.96596322 0.98155777 1.00000000
0.96632354 0.98171343 1.00000000
0.96783980 0.98237450 1.00000000
0.97290789 0.98465978 1.00000000
0.98700974 0.99179837 1.00000000
1.00000000 1.00000000 1.00000000
1.00000000 0.99995530 0.99998734
1.00000000 0.99984533 0.99987773
1.00000000 1.00000000 1.00000000
1.00000000 1.00000000 1.00000000
1.00000000 1.00000000 1.00000000
1.00000000 1.00000000 1.00000000
1.00000000 1.00000000 1.00000000
1.00000000 1.00000000 1.00000000
1.00000000 1.00000000 1.00000000
1.00000000 1.00000000 0.99995054
1.00000000 0.99990337 0.99990912
1.00000000 1.00000000 1.00000000
1.00000000 1.00000000 1.00000000
1.00000000 1.00000000 1.00000000
1.00000000 1.00000000 1.00000000
1.00000000 1.00000000 1.00000000
1.00000000 1.00000000 1.00000000
1.00000000 1.00000000 1.00000000
1.00000000 1.00000000 1.00000000
1.00000000 0.99998834 0.99978449
0.91697848 0.92168516 1.00000000
0.91703284 0.92172897 1.00000000
0.91744932 0.92206480 1.00000000
0.91920501 0.92348401 1.00000000
0.92511362 0.92830362 1.00000000
0.94203092 0.94252226 1.00000000
0.97996685 0.97777223 1.00000000
1.00000000 1.00000000 1.00000000
1.00000000 0.99989778 0.99997106
0.91709770 0.92180460 1.00000000
0.91715200 0.92184836 1.00000000
0.91756806 0.92218385 1.00000000
0.91932196 0.92360161 1.00000000
0.92522464 0.92841639 1.00000000
0.94212558 0.94262145 1.00000000
0.98002792 0.97784214 1.00000000
1.00000000 1.00000000 1.00000000
1.00000000 0.99989779 0.99997106
0.91800945 0.92271756 1.00000000
0.91806332 0.92276098 1.00000000
0.91847614 0.92309385 1.00000000
0.92021642 0.92450058 1.00000000
0.92607384 0.92927846 1.00000000
0.94284993 0.94337992 1.00000000
0.98049552 0.97837713 1.00000000
1.00000000 1.00000000 1.00000000
1.00000000 0.99989793 0.99997110
0.92181943 0.92652322 1.00000000
0.92187155 0.92656523 1.00000000
0.92227096 0.92688728 1.00000000
0.92395491 0.92824850 1.00000000
0.92962501 0.93287419 1.00000000
0.94588373 0.94654763 1.00000000
0.98246139 0.98061832 1.00000000
1.00000000 1.00000000 1.00000000
1.00000000 0.99989852 0.99997126
0.93426595 0.93884348 1.00000000
0.93431256 0.93888108 1.00000000
0.93466974 0.93916943 1.00000000
0.93617620 0.94038874 1.00000000
0.94125514 0.94453906 1.00000000
0.95587258 0.95686944 1.00000000
0.98901934 0.98799879 1.00000000
1.00000000 1.00000000 1.00000000
1.00000000 0.99990051 0.99997183
0.96720793 0.97046003 1.00000000
0.96724146 0.97048752 1.00000000
0.96749841 0.97069834 1.00000000
0.96858304 0.97159094 1.00000000
0.97225046 0.97464229 1.00000000
0.98289411 0.98382858 1.00000000
1.00000000 1.00000000 1.00000000
1.00000000 1.00000000 1.00000000
1.00000000 0.99990655 0.99997354
1.00000000 1.00000000 1.00000000
1.00000000 1.00000000 1.00000000
1.00000000 1.00000000 1.00000000
1.00000000 1.00000000 1.00000000
1.00000000 1.00000000 1.00000000
1.00000000 1.00000000 1.00000000
1.00000000 1.00000000 1.00000000
1.00000000 1.00000000 1.00000000
1.00000000 0.99992241 0.99997803
1.00000000 1.00000000 1.00000000
1.00000000 1.00000000 1.00000000
1.00000000 1.00000000 1.00000000
1.00000000 1.00000000 1.00000000
1.00000000 1.00000000 1.00000000
1.00000000 1.00000000 1.00000000
1.00000000 1.00000000 1.00000000
1.00000000 1.00000000 1.00000000
1.00000000 0.99995448 0.99998711
1.00000000 1.00000000 1.00000000
1.00000000 1.00000000 1.00000000
1.00000000 1.00000000 1.00000000
1.00000000 1.00000000 1.00000000
1.00000000 1.00000000 1.00000000
1.00000000 1.00000000 1.00000000
1.00000000 1.00000000 1.00000000
1.00000000 1.00000000 1.00000000
1.00000000 1.00000000 0.99995054
